packages/symbols/svgs/solid/comment-solid.svg

<svg width="16" height="16" viewBox="0 0 16 16" fill="none" xmlns="http://www.w3.org/2000/svg">
<path fill-rule="evenodd" clip-rule="evenodd" d="M0 5.5C0 2.462 2.91 0 6.5 0C10.09 0 13 2.462 13 5.5C13 8.538 10.09 11 6.5 11C5.496 11 4.548 10.802 3.699 10.458L1 12V8.422C0.37 7.574 0 6.575 0 5.5ZM14.8529 6.86099C15.5709 7.60299 15.9999 8.51299 15.9999 9.49999C15.9999 10.425 15.6269 11.285 14.9879 12H14.9999V16L11.3069 13.89C10.8859 13.96 10.4489 14 9.99995 14C8.55595 14 7.23095 13.617 6.19495 12.979C6.24187 12.9804 6.28797 12.9848 6.33399 12.9893C6.38898 12.9947 6.44387 13 6.49995 13C10.6599 13 14.1239 10.348 14.8529 6.86099Z" fill="black"/>
</svg>

<svg width="16" height="16" viewBox="0 0 16 16" xmlns="http://www.w3.org/2000/svg"><path fill-rule="evenodd" clip-rule="evenodd" d="M0 5.5C0 2.462 2.91 0 6.5 0S13 2.462 13 5.5 10.09 11 6.5 11a7.454 7.454 0 0 1-2.801-.542L1 12V8.422C.37 7.574 0 6.575 0 5.5Zm14.853 1.361C15.57 7.603 16 8.513 16 9.5c0 .925-.373 1.785-1.012 2.5H15v4l-3.693-2.11c-.421.07-.858.11-1.307.11-1.444 0-2.769-.383-3.805-1.021.047.001.093.006.139.01.055.006.11.011.166.011 4.16 0 7.624-2.652 8.353-6.139Z"/></svg>
